X: 4
T: The Singing Stream
R: reel
M: 4/4
L: 1/8
K: Dmaj
dAAA GAdF|Adef edBc|dAAA g2fe|edef g2fe|
dAAA GAdF|Adef ed(3efg|a3b bagf|1edef g2fe:|2edef g2fg||
adde cdef|ggfg egfe|dAAA FAde|fgfd edfg|
adde cdef|ggfg egfe|dAAA FAdf|edfe defg|
adde cdef|ggfg egfe|dAAA FAde|fgfd edfg|
a3b bagf|edef gefe|dFAd GAdF|AdGd g2fe|d8||


Tune 2465	Setting 2465

